storage/app/icons/phosphoricons/light/brackets-square-light.svg

<svg xmlns="http://www.w3.org/2000/svg" fill="currentColor" viewBox="0 0 256 256"><path d="M46 46v164h34a6 6 0 0 1 0 12H40a6 6 0 0 1-6-6V40a6 6 0 0 1 6-6h40a6 6 0 0 1 0 12Zm170-12h-40a6 6 0 0 0 0 12h34v164h-34a6 6 0 0 0 0 12h40a6 6 0 0 0 6-6V40a6 6 0 0 0-6-6"/></svg>

<svg xmlns="http://www.w3.org/2000/svg" viewBox="0 0 256 256" fill="currentColor"><path d="M46,46V210H80a6,6,0,0,1,0,12H40a6,6,0,0,1-6-6V40a6,6,0,0,1,6-6H80a6,6,0,0,1,0,12ZM216,34H176a6,6,0,0,0,0,12h34V210H176a6,6,0,0,0,0,12h40a6,6,0,0,0,6-6V40A6,6,0,0,0,216,34Z"/></svg>
